packages/match-logos/mono/svg/xoom.svg

<svg fill="none" height="30" viewBox="0 0 144 30" width="144" xmlns="http://www.w3.org/2000/svg"><path d="m34.5 28.425-11.25-12.825c-.075-.075-.15-.075-.225-.075s-.15.075-.225.075l-4.05 4.65c-.075.15-.075.3 0 .45l7.125 8.175c.075.075.15.075.225.075h8.175c.15 0 .225-.075.3-.225.075-.075 0-.225-.075-.3zm-11.625-16.05c.075.075.15.075.225.075s.15-.075.225-.075l9.6-10.95c.075-.075.075-.225.075-.375-.075-.15-.15-.15-.3-.15h-8.25c-.075 0-.15.075-.225.075l-5.475 6.225c-.075.15-.075.3 0 .45zm-1.2 1.35-11.1-12.75c-.075-.075-.15-.15-.225-.15h-8.175c-.15 0-.225.075-.3.15-.075.15 0 .225.075.375l10.8 12.45-12.675 14.625c-.075.075-.075.225-.075.3.075.075.15.15.3.15h8.25c.075 0 .15-.075.225-.15l8.7-9.975h.075l4.05-4.65c.15-.075.15-.3.075-.375zm111.15-13.425c-3.6 0-6.6 1.425-9.075 4.35-1.725-2.775-4.575-4.35-8.1-4.35-3.75 0-6.075 1.8-7.725 3.675v-2.55c0-.3-.225-.525-.525-.525h-6.15c-.3 0-.525.225-.525.525v27c0 .3.225.525.525.525h6.15c.3 0 .525-.225.525-.525v-15.225c0-3.75 2.1-6.225 5.25-6.225 3.225 0 4.95 2.1 4.95 6v15.45c0 .3.225.525.525.525h6.225c.3 0 .525-.225.525-.525v-15.3c0-3.825 1.95-6.15 5.25-6.15 4.125 0 4.95 3.3 4.95 6.075v15.375c0 .3.225.525.525.525h6.225c.3 0 .525-.225.525-.525v-17.25c0-6.825-3.75-10.875-10.05-10.875zm-51.3-.3c-8.625 0-15.45 6.6-15.45 15v.075c0 8.475 6.6 14.925 15.375 14.925 8.7 0 15.525-6.6 15.525-15v-.075c0-8.55-6.6-14.925-15.45-14.925zm8.625 15.075c0 5.1-3.675 8.925-8.55 8.925-4.95 0-8.7-3.825-8.7-9v-.075c0-5.1 3.675-8.925 8.55-8.925 4.95 0 8.7 3.825 8.7 9zm-41.925-15.075c-8.7 0-15.45 6.6-15.45 15v.075c0 8.475 6.6 14.925 15.375 14.925 8.7 0 15.525-6.6 15.525-15v-.075c0-8.55-6.675-14.925-15.45-14.925zm8.625 15.075c0 5.1-3.675 8.925-8.55 8.925-4.95 0-8.7-3.825-8.7-9v-.075c0-5.1 3.675-8.925 8.55-8.925 4.95 0 8.7 3.825 8.7 9z" fill="#1f304c"/></svg>

<svg width="144" height="30" viewBox="0 0 144 30" fill="none" xmlns="http://www.w3.org/2000/svg">
<path d="M34.5 28.425L23.25 15.6C23.175 15.525 23.1 15.525 23.025 15.525C22.95 15.525 22.875 15.6 22.8 15.6L18.75 20.25C18.675 20.4 18.675 20.55 18.75 20.7L25.875 28.875C25.95 28.95 26.025 28.95 26.1 28.95H34.275C34.425 28.95 34.5 28.875 34.575 28.725C34.65 28.65 34.575 28.5 34.5 28.425ZM22.875 12.375C22.95 12.45 23.025 12.45 23.1 12.45C23.175 12.45 23.25 12.375 23.325 12.375L32.925 1.425C33 1.35 33 1.2 33 1.05C32.925 0.9 32.85 0.9 32.7 0.9H24.45C24.375 0.9 24.3 0.975 24.225 0.975L18.75 7.2C18.675 7.35 18.675 7.5 18.75 7.65L22.875 12.375ZM21.675 13.725L10.575 0.975C10.5 0.9 10.425 0.825 10.35 0.825H2.175C2.025 0.825 1.95 0.9 1.875 0.975C1.8 1.125 1.875 1.2 1.95 1.35L12.75 13.8L0.075 28.425C0 28.5 0 28.65 0 28.725C0.075 28.8 0.15 28.875 0.3 28.875H8.55C8.625 28.875 8.7 28.8 8.775 28.725L17.475 18.75H17.55L21.6 14.1C21.75 14.025 21.75 13.8 21.675 13.725ZM132.825 0.3C129.225 0.3 126.225 1.725 123.75 4.65C122.025 1.875 119.175 0.3 115.65 0.3C111.9 0.3 109.575 2.1 107.925 3.975V1.425C107.925 1.125 107.7 0.9 107.4 0.9H101.25C100.95 0.9 100.725 1.125 100.725 1.425V28.425C100.725 28.725 100.95 28.95 101.25 28.95H107.4C107.7 28.95 107.925 28.725 107.925 28.425V13.2C107.925 9.45 110.025 6.975 113.175 6.975C116.4 6.975 118.125 9.075 118.125 12.975V28.425C118.125 28.725 118.35 28.95 118.65 28.95H124.875C125.175 28.95 125.4 28.725 125.4 28.425V13.125C125.4 9.3 127.35 6.975 130.65 6.975C134.775 6.975 135.6 10.275 135.6 13.05V28.425C135.6 28.725 135.825 28.95 136.125 28.95H142.35C142.65 28.95 142.875 28.725 142.875 28.425V11.175C142.875 4.35 139.125 0.3 132.825 0.3ZM81.525 0C72.9 0 66.075 6.6 66.075 15V15.075C66.075 23.55 72.675 30 81.45 30C90.15 30 96.975 23.4 96.975 15V14.925C96.975 6.375 90.375 0 81.525 0ZM90.15 15.075C90.15 20.175 86.475 24 81.6 24C76.65 24 72.9 20.175 72.9 15V14.925C72.9 9.825 76.575 6 81.45 6C86.4 6 90.15 9.825 90.15 15V15.075ZM48.225 0C39.525 0 32.775 6.6 32.775 15V15.075C32.775 23.55 39.375 30 48.15 30C56.85 30 63.675 23.4 63.675 15V14.925C63.675 6.375 57 0 48.225 0ZM56.85 15.075C56.85 20.175 53.175 24 48.3 24C43.35 24 39.6 20.175 39.6 15V14.925C39.6 9.825 43.275 6 48.15 6C53.1 6 56.85 9.825 56.85 15V15.075Z" fill="#1F304C"/>
</svg>
